X:1
T:Title
%%score 1 2 3
L:1/8
M:3/2
K:C
V:1 treble nm="Part_1"
V:2 treble-8 nm="Part_2"
V:3 treble-8 nm="Part_3"
V:1
 c2 (A4 F4) E2 | F8 A3 G | (A6 c4) B2 | c4 A8 | F4 c2 B2 A4 | G2 c4 f2 e2 c2- | c2 d3 c c4 B2 | %7
 c8 z4 | B8 A4 | G4 A2 c3 B B2- | B2 A3 G G4 F2 | G4 B4 c4 | A2 (G4 F4) E2 | F8 A4 | G4 E2 F4 E2 | %15
 C2 D2 E2 C4 B,2 | C4 z2 G4 A2- | A2 G4 E2 F4 | G2 (A4 F4) E2 | F12 |] %20
V:2
 (c4 A4) G4 | F4 F2 A4 B2 | c4 e2 f2 d4 | c8 c4 | A6 G2 F4 | c4 c2 d2 c2 e2 | f4 g2 e2 d4 | c8 A4 | %8
 G8 d4 | (e4 f4) d4 | (c4 G4) A4 | G4 z4 A4 | c2 B2 (A4 G4) | F4 z4 F4 | (G4 A4) F2 G2 | %15
 C2 B,2 C2 E2 D4 | (C8 c4-) | c4 A4 F2 D2 | E2 F4 A2 G4 | F12 |] %20
V:3
 c8 B4 | c4 A4 F2 G2 | C2 F2 (A4 G4) | C8 F4 | F8 z4 | C4 F2 B,2 C4 | (F4 c4) G4 | (A4 F4) c4 | %8
 d8 f4 | c4 z2 F2 G4 | z2 A2 B4 c4 | d4 d4 c4 | F2 G2 A2 c4 B2 | (c4 d4) c4 | B4 c6 B2 | %15
 G4 A2 G4 F2 | G4 c4 C4- | C4 c4 B2 d2 | c2 F2 c2 c4 B2 | c12 |] %20

